austria/municipalities/20639.svg

<?xml version="1.0" encoding="UTF-8" standalone="no"?>
<!-- Created with Inkscape (http://www.inkscape.org/) -->
<svg
   xmlns:dc="http://purl.org/dc/elements/1.1/"
   xmlns:cc="http://web.resource.org/cc/"
   xmlns:rdf="http://www.w3.org/1999/02/22-rdf-syntax-ns#"
   xmlns:svg="http://www.w3.org/2000/svg"
   xmlns="http://www.w3.org/2000/svg"
   xmlns:sodipodi="http://inkscape.sourceforge.net/DTD/sodipodi-0.dtd"
   xmlns:inkscape="http://www.inkscape.org/namespaces/inkscape"
   width="690.09003"
   height="780.35999"
   id="svg1332"
   sodipodi:version="0.32"
   inkscape:version="0.43"
   sodipodi:docname="wappen_weissensee.svg"
   version="1.0"
   sodipodi:docbase="M:\wappen">
  <defs
     id="defs3" />
  <sodipodi:namedview
     inkscape:document-units="mm"
     id="base"
     pagecolor="#ffffff"
     bordercolor="#666666"
     borderopacity="1.0"
     inkscape:pageopacity="0.0"
     inkscape:pageshadow="2"
     inkscape:zoom="0.70710678"
     inkscape:cx="239.86591"
     inkscape:cy="371.14883"
     inkscape:current-layer="layer1"
     inkscape:window-width="1280"
     inkscape:window-height="977"
     inkscape:window-x="-4"
     inkscape:window-y="-4"
     showgrid="false"
     showguides="true"
     inkscape:guide-bbox="true" />
  <metadata
     id="metadata4">
    <rdf:RDF>
      <cc:Work
         rdf:about="">
        <dc:format>image/svg+xml</dc:format>
        <dc:type
           rdf:resource="http://purl.org/dc/dcmitype/StillImage" />
        <dc:title>Wappen Gemeinde Weissensee</dc:title>
        <dc:date>15. Feb. 2006</dc:date>
        <dc:creator>
          <cc:Agent>
            <dc:title>Michael Glanznig</dc:title>
          </cc:Agent>
        </dc:creator>
        <dc:rights>
          <cc:Agent>
            <dc:title />
          </cc:Agent>
        </dc:rights>
        <dc:description>Weissensee, Coat of Arms</dc:description>
        <cc:license
           rdf:resource="http://creativecommons.org/licenses/by-sa/2.0/" />
      </cc:Work>
      <cc:License
         rdf:about="http://creativecommons.org/licenses/by-sa/2.0/at/">
        <cc:permits
           rdf:resource="http://web.resource.org/cc/Reproduction" />
        <cc:permits
           rdf:resource="http://web.resource.org/cc/Distribution" />
        <cc:requires
           rdf:resource="http://web.resource.org/cc/Notice" />
        <cc:requires
           rdf:resource="http://web.resource.org/cc/Attribution" />
        <cc:permits
           rdf:resource="http://web.resource.org/cc/DerivativeWorks" />
        <cc:requires
           rdf:resource="http://web.resource.org/cc/ShareAlike" />
      </cc:License>
    </rdf:RDF>
  </metadata>
  <g
     inkscape:label="Layer 1"
     inkscape:groupmode="layer"
     id="layer1">
    <a
       id="a3977" />
    <g
       id="g2187">
      <path
         sodipodi:nodetypes="ccccc"
         id="path1350"
         d="M 17.225331,22.785356 L 670.08245,23.995256 L 619.55665,562.81299 C 582.77565,831.849 92.179889,834.9833 65.218861,562.86804 L 17.225331,22.785356 z "
         style="fill:#ffffff;fill-opacity:1;fill-rule:evenodd;stroke:#000000;stroke-width:12.81259823;stroke-linecap:butt;stroke-linejoin:miter;stroke-miterlimit:4;stroke-dasharray:none;stroke-opacity:1" />
      <path
         sodipodi:nodetypes="ccccc"
         id="path1388"
         d="M 89.755672,26.941898 L 601.55359,28.019411 L 561.94462,507.88155 C 533.11068,747.48055 148.51519,750.27192 127.37949,507.93058 L 89.755672,26.941898 z "
         style="fill:#0180bf;fill-opacity:1;fill-rule:evenodd;stroke:#000000;stroke-width:6.24999857;stroke-linecap:butt;stroke-linejoin:miter;stroke-miterlimit:4;stroke-dasharray:none;stroke-opacity:1" />
      <path
         sodipodi:nodetypes="ccccccccccccccccc"
         id="path2263"
         d="M 125.86501,485.86042 C 271.70528,460.01592 417.54556,459.7053 563.38583,485.86042 L 561.34252,507.56947 C 538.17717,503.39687 499.51181,498.44684 476.34646,496.15526 L 476.34646,563.64216 L 452.12992,563.64216 L 451.62992,492.11195 C 418.73758,487.94601 390.55234,487.57677 357.66,487.40484 L 358.16,563.30487 L 333.39044,563.30487 L 333.39044,487.44037 C 297.02252,486.70582 272.81344,489.03354 237.72835,492.14748 L 237.72835,561.76156 L 213.70866,561.76156 L 213.70866,496.15526 C 192.15879,498.88287 149.10893,503.50349 127.55906,508.06947 L 125.86501,485.86042 z "
         style="fill:#ffffff;fill-opacity:1;fill-rule:evenodd;stroke:#000000;stroke-width:6.25;stroke-linecap:butt;stroke-linejoin:miter;stroke-miterlimit:4;stroke-dasharray:none;stroke-opacity:1" />
      <path
         sodipodi:nodetypes="ccccssccsccccscscccccc"
         id="text3139"
         d="M 269.04905,435.85581 C 256.91959,404.96814 247.48753,380.46196 239.89354,357.78958 C 232.41801,335.11732 219.72164,298.51559 201.80443,247.98429 C 183.88706,197.30514 172.1993,167.07538 166.74108,157.29491 C 161.28281,147.36677 156.23986,140.55024 151.61224,136.84533 C 146.98456,133.14099 133.81356,126.67544 133.81357,124.30421 C 133.81356,121.48896 138.32256,122.17529 147.34056,122.17498 L 223.00196,122.17498 C 230.23997,122.17529 219.14419,139.14248 219.14428,153.07163 C 219.14419,156.18377 266.85375,290.2369 275.99053,314.98376 C 279.66877,303.57355 318.64779,179.05117 321.02112,167.78887 C 325.51437,146.59306 315.21986,139.20378 303.29763,122.17498 L 381.59455,122.17498 C 386.22198,122.17529 370.25521,151.8622 375.2622,163.893 C 383.02484,182.54509 396.10519,212.7297 442.84102,318.50458 C 450.31618,294.64683 494.32559,149.32442 494.32591,145.17497 C 494.32559,127.39302 468.26603,122.17529 473.24997,122.17498 L 535.90783,122.17498 C 548.84114,122.17529 533.47499,129.85756 526.11856,146.60222 C 518.76146,163.19922 444.26001,422.51914 439.63264,435.85581 C 439.63264,435.85581 366.73111,256.65496 339.94571,206.41832 L 269.04905,435.85581 z "
         style="font-size:12px;font-style:normal;font-weight:normal;line-height:125%;fill:#ffffff;fill-opacity:1;stroke:#000000;stroke-width:6.39718819;stroke-linecap:butt;stroke-linejoin:miter;stroke-miterlimit:4;stroke-dasharray:none;stroke-opacity:1;font-family:Bitstream Vera Sans" />
    </g>
  </g>
</svg>

<svg xmlns="http://www.w3.org/2000/svg" width="690.09" height="780.36" version="1.0"><path d="m17.225 22.785 652.857 1.21-50.525 538.818c-36.781 269.036-527.377 272.17-554.338.055L17.225 22.785z" style="fill:#fff;fill-opacity:1;fill-rule:evenodd;stroke:#000;stroke-width:12.81259823;stroke-linecap:butt;stroke-linejoin:miter;stroke-miterlimit:4;stroke-dasharray:none;stroke-opacity:1"/><path d="m89.756 26.942 511.798 1.077-39.61 479.863c-28.833 239.599-413.429 242.39-434.565.049L89.756 26.94z" style="fill:#0180bf;fill-opacity:1;fill-rule:evenodd;stroke:#000;stroke-width:6.24999857;stroke-linecap:butt;stroke-linejoin:miter;stroke-miterlimit:4;stroke-dasharray:none;stroke-opacity:1"/><path d="M125.865 485.86c145.84-25.844 291.68-26.155 437.52 0l-2.042 21.71c-23.166-4.173-61.831-9.123-84.997-11.415v67.487H452.13l-.5-71.53c-32.892-4.166-61.078-4.535-93.97-4.707l.5 75.9h-24.77V487.44c-36.367-.734-60.577 1.594-95.662 4.707v69.615h-24.02v-65.607c-21.55 2.728-64.6 7.348-86.149 11.914l-1.694-22.209z" style="fill:#fff;fill-opacity:1;fill-rule:evenodd;stroke:#000;stroke-width:6.25;stroke-linecap:butt;stroke-linejoin:miter;stroke-miterlimit:4;stroke-dasharray:none;stroke-opacity:1"/><path d="M269.05 435.856c-12.13-30.888-21.562-55.394-29.156-78.066-7.476-22.673-20.172-59.274-38.09-109.806-17.917-50.679-29.605-80.909-35.063-90.69-5.458-9.927-10.501-16.744-15.129-20.449-4.627-3.704-17.798-10.17-17.798-12.54 0-2.816 4.509-2.13 13.527-2.13h75.661c7.238 0-3.858 16.967-3.858 30.897 0 3.112 47.71 137.165 56.847 161.912 3.678-11.41 42.657-135.933 45.03-147.195 4.493-21.196-5.801-28.585-17.723-45.614h78.297c4.627 0-11.34 29.687-6.333 41.718 7.763 18.652 20.843 48.837 67.579 154.612 7.475-23.858 51.485-169.18 51.485-173.33 0-17.782-26.06-23-21.076-23h62.658c12.933 0-2.433 7.683-9.79 24.427-7.357 16.597-81.858 275.917-86.485 289.254 0 0-72.902-179.201-99.687-229.438l-70.897 229.438z" style="font-size:12px;font-style:normal;font-weight:400;line-height:125%;fill:#fff;fill-opacity:1;stroke:#000;stroke-width:6.39718819;stroke-linecap:butt;stroke-linejoin:miter;stroke-miterlimit:4;stroke-dasharray:none;stroke-opacity:1;font-family:Bitstream Vera Sans"/></svg>
